X:1
T:Title
%%score { ( 1 3 4 ) | ( 2 5 ) }
L:1/8
M:4/4
K:Eb
V:1 treble nm="Grand Piano"
V:3 treble 
V:4 treble 
V:2 bass 
V:5 bass 
V:1
 z4 z2[Q:1/4=100] E2 | G2 E2 [DB]3 [FA] | G4 z2 G2 | c2 B2 A2 [FB]2 | [EG]8 | [Ge]2 ee e2 d2 | %6
 c2 B2 =A2 B2 | f6 =A2 | [DB]4 z2 B2 | z2 z B B2 A-[Ad] | e6 z2 | z2 z c c2 B-[B=e] | %12
 [Af]6[K:bass][K:treble] z2 | [Gg]2 [Af]2 [EBe]2 [EAc]2 | [DFB]2 z [DFA] [EG]2 [A,EA]2 | %15
 [EB]6 [DF]2 |[M:3/4] [B,EG]6 |] %17
V:2
 z4 z2 E,2 | G,2 [E,G,]2 [B,,F,]3 [B,,B,] | [E,B,E]4 z2 [E,B,E]2 | %3
 [A,E]2 [G,B,E]2 [F,CE]2 [D,B,]2 | [E,B,]8 | [C,C]2[K:treble] [CG][B,CG] [=A,CF]2 [B,F]2 | %6
 [F,=A,E]2 [G,B,D]2 [G,B,D]2 [_G,C=E]2 | [F,DF]6 [F,CE]2 | [B,,B,]4 z2 [A,B,D]2 | %9
 [G,B,E]2 [A,B,]2 [G,B,E]2 [F,B,]2 | B,2 A,2 G,2[K:treble] [G,_DE]2 | %11
 [A,CE]2 [B,C]2 [A,CF]2 [G,C]2 | C4 D,2 F,2 | [E,E]2 [F,B,]2 G,2 A,2 | B,2 z B,, C,2 C,2 | %15
 [B,,G,]6 [B,,B,]2 |[M:3/4] [E,,E,]6 |] %17
V:3
 x8 | x8 | x8 | x8 | x8 | x8 | x8 | x8 | x8 | B4 z2 .c2 | G2 F2 E2 B2 | c4 z2 .d2 | %12
 z2[K:bass] E,2 B,2[K:treble] [DAB]2 | x8 | x8 | x8 |[M:3/4] x6 |] %17
V:4
 x8 | x8 | x8 | x8 | x8 | x8 | x8 | x8 | x8 | z2 D2 z4 | x8 | z2 =E2 z4 | %12
 x2[K:bass] x4[K:treble] x2 | x8 | x8 | x8 |[M:3/4] x6 |] %17
V:5
 x8 | x8 | x8 | x8 | x8 | x2[K:treble] x6 | x8 | x8 | x8 | x8 | E,6[K:treble] z2 | x8 | F,2 z2 z4 | %13
 x8 | x8 | x8 |[M:3/4] x6 |] %17

